X: 1
T: Four Leafed Shamrock, The
M: 4/4
L: 1/8
R: reel
K: Dmaj
|:e|fd~d2 edBc|d2ec dBAF|DEFB ABdA|e2df edBd|
fd~d2 edBc|dAec dBAF|DEFB ABdA|~e3f d3:|
|:B|Ad~d2 dafa|bfaf efdB|BAFB ABdf|eB~B2 egfe|
dBAB defa|bfaf efdB|DEFB ABdf|edef d3:|
